img/tw-icon.svg

<svg width="12" height="10" viewBox="0 0 12 10" fill="none" xmlns="http://www.w3.org/2000/svg">
<path d="M12 1.15715C11.5507 1.35606 11.074 1.48634 10.586 1.54365C11.0998 1.23599 11.4843 0.75214 11.668 0.182145C11.1848 0.468514 10.6564 0.670723 10.1055 0.780145C9.76798 0.419321 9.32971 0.168394 8.84768 0.0599907C8.36564 -0.0484125 7.86214 -0.00927573 7.40264 0.172312C6.94315 0.353899 6.54891 0.669536 6.27121 1.07818C5.9935 1.48682 5.84517 1.96957 5.8455 2.46365C5.8455 2.65715 5.867 2.84465 5.9105 3.02415C4.93126 2.97595 3.97316 2.72195 3.09864 2.2787C2.22413 1.83546 1.45283 1.21292 0.835 0.451645C0.615488 0.827398 0.500352 1.25497 0.5015 1.69015C0.5015 2.54365 0.935 3.29765 1.597 3.73915C1.20598 3.72674 0.823629 3.62078 0.482 3.43015V3.46165C0.481662 4.03023 0.678215 4.5814 1.03826 5.02147C1.3983 5.46154 1.89961 5.76336 2.457 5.87565C2.09453 5.97505 1.71406 5.98976 1.345 5.91865C1.5022 6.4078 1.80827 6.83563 2.22044 7.14239C2.63261 7.44914 3.13031 7.61949 3.644 7.62965C3.13332 8.03048 2.54861 8.32667 1.92332 8.50127C1.29804 8.67587 0.644464 8.72544 0 8.64715C1.12526 9.37128 2.43537 9.75579 3.7735 9.75465C8.3025 9.75465 10.7795 6.00265 10.7795 2.74865C10.7795 2.64365 10.7755 2.53565 10.7715 2.43015C11.2528 2.08167 11.6687 1.65088 12 1.15765V1.15715Z" fill="#9F9F9F"/>
</svg>

<svg width="12" height="10" fill="none" xmlns="http://www.w3.org/2000/svg"><path d="M12 1.157c-.45.2-.926.33-1.414.387A2.47 2.47 0 0 0 11.668.182a4.96 4.96 0 0 1-1.563.598A2.462 2.462 0 0 0 5.91 3.024 6.978 6.978 0 0 1 .835.452a2.458 2.458 0 0 0 .762 3.288 2.448 2.448 0 0 1-1.115-.31v.032a2.461 2.461 0 0 0 1.975 2.414c-.362.1-.743.114-1.112.043a2.466 2.466 0 0 0 2.299 1.71A4.938 4.938 0 0 1 0 8.648a6.962 6.962 0 0 0 3.773 1.108c4.53 0 7.006-3.752 7.006-7.006 0-.105-.004-.213-.008-.319.482-.348.898-.78 1.229-1.272Z" fill="#9F9F9F"/></svg>
